Sources/FrostedUI/Resources/Icons.xcassets/cartRemove24.imageset/cart-remove-24.svg

<svg width="24" height="24" viewBox="0 0 24 24" fill="none" xmlns="http://www.w3.org/2000/svg" data-fui-icon="true">
  <path
    d="M8 17C9.10456 17 10 17.8954 10 19C10 20.1046 9.10456 21 8 21C6.89544 21 6 20.1046 6 19C6 17.8954 6.89544 17 8 17ZM17 17C18.1046 17 19 17.8954 19 19C19 20.1046 18.1046 21 17 21C15.8954 21 15 20.1046 15 19C15 17.8954 15.8954 17 17 17ZM8 18.5C7.72384 18.5 7.5 18.7238 7.5 19C7.5 19.2762 7.72384 19.5 8 19.5C8.27616 19.5 8.5 19.2762 8.5 19C8.5 18.7238 8.27616 18.5 8 18.5ZM17 18.5C16.7238 18.5 16.5 18.7238 16.5 19C16.5 19.2762 16.7238 19.5 17 19.5C17.2762 19.5 17.5 19.2762 17.5 19C17.5 18.7238 17.2762 18.5 17 18.5ZM2.27051 2C3.34291 2.0001 4.26618 2.75704 4.47656 3.80859L6.41406 13.4951L6.44043 13.6025C6.59522 14.1303 7.08099 14.5 7.63965 14.5H17.835C18.4379 14.4999 18.9552 14.0696 19.0645 13.4766L20.5127 5.61426C20.5877 5.20692 20.9784 4.9377 21.3857 5.0127C21.7931 5.08773 22.0623 5.47841 21.9873 5.88574L20.5391 13.748C20.2987 15.0527 19.1615 15.9999 17.835 16H7.63965C6.32878 16 5.20044 15.0745 4.94336 13.7891L3.00586 4.10254C2.93563 3.75221 2.62782 3.5001 2.27051 3.5H1.75C1.33579 3.5 1 3.16421 1 2.75C1 2.33579 1.33579 2 1.75 2H2.27051ZM14.5176 4.17188C14.8105 3.87898 15.2852 3.87898 15.5781 4.17188C15.871 4.46477 15.871 4.93953 15.5781 5.23242L13.8105 7L15.5781 8.76758C15.871 9.06047 15.871 9.53523 15.5781 9.82812C15.2852 10.121 14.8105 10.121 14.5176 9.82812L12.75 8.06055L10.9824 9.82812C10.6895 10.121 10.2148 10.121 9.92188 9.82812C9.62898 9.53523 9.62898 9.06047 9.92188 8.76758L11.6895 7L9.92188 5.23242C9.62898 4.93953 9.62898 4.46477 9.92188 4.17188C10.2148 3.87898 10.6895 3.87898 10.9824 4.17188L12.75 5.93945L14.5176 4.17188Z"
    fill="currentColor"
  />
</svg>

<svg xmlns="http://www.w3.org/2000/svg" width="24" height="24" fill="none" data-fui-icon="true" viewBox="0 0 24 24"><path fill="currentColor" d="M8 17a2 2 0 1 1 0 4 2 2 0 0 1 0-4m9 0a2 2 0 1 1 0 4 2 2 0 0 1 0-4m-9 1.5a.5.5 0 1 0 0 1 .5.5 0 0 0 0-1m9 0a.5.5 0 1 0 0 1 .5.5 0 0 0 0-1M2.27 2a2.25 2.25 0 0 1 2.207 1.809l1.937 9.686.026.107c.155.528.641.898 1.2.898h10.195c.603 0 1.12-.43 1.23-1.023l1.448-7.863a.75.75 0 1 1 1.474.272l-1.448 7.862A2.75 2.75 0 0 1 17.835 16H7.64a2.75 2.75 0 0 1-2.697-2.21L3.006 4.102A.75.75 0 0 0 2.27 3.5H1.75a.75.75 0 0 1 0-1.5zm12.248 2.172a.75.75 0 1 1 1.06 1.06L13.811 7l1.767 1.768a.75.75 0 1 1-1.06 1.06L12.75 8.061l-1.768 1.767a.75.75 0 1 1-1.06-1.06L11.69 7 9.922 5.232a.75.75 0 1 1 1.06-1.06l1.768 1.767z"/></svg>
